X:25
T:GB/7b/25 A Lawyer He Rode Out
%%VWML:GB-7b-25-0
F:http://www.vwml.org/record/GB/7b/25
T:Version 1 of 2
C:Mrs. Cranstone (p. 4), Billingshurst, VII. 07
C:Transcribed by Simon Furey and Lewis Jones
L:1/8
M:6/8
I:linebreak $
K:C
G | c2 c cBA | GE G C2 C | c2 c edc | A2 B c3 | c2 d edc |$ d3 c3 | AG A E2 D | C2 G GEG | GE G A2 B | c3- c2 |]

